packages/core/src/svgs/stbu.svg

<svg width="24" height="24" viewBox="0 0 24 24" fill="none" xmlns="http://www.w3.org/2000/svg">
<g clip-path="url(#clip0_31_19352)">
<path d="M0 0H24V24H0V0Z" fill="#F0F3FA"/>
<path d="M12.4286 11.143H13.7144V14.143C13.7144 17.0359 16.4015 17.5716 17.7858 17.5716C18.2572 17.5716 18.4286 17.4687 18.4286 17.4687V15.0001H18.1629C17.6058 15.0001 16.7144 14.7773 16.7144 13.8087V6.42871H13.7144V9.00014H12.4286V11.143ZM8.17293 15.2273C7.35967 15.1907 6.58169 14.8846 5.9615 14.3573L4.71436 16.2987C4.71436 16.2987 6.01293 17.5716 8.18578 17.5716C10.4315 17.5716 12.2144 16.2601 12.2144 14.7859C12.2144 12.9173 9.90007 12.3173 8.70007 11.8887C8.11721 11.683 7.71436 11.5716 7.71436 11.3573C7.71436 11.0573 8.10436 10.8944 8.5415 10.8944C9.75864 10.8944 10.5986 11.5973 10.5986 11.5973L11.5972 9.54014C11.5972 9.54014 10.5686 8.55442 8.5415 8.55442C6.53578 8.55442 4.92864 9.51871 4.92864 11.143C4.92864 12.9944 6.72864 13.7016 7.93721 14.1559C8.55864 14.3916 9.00007 14.5844 9.00007 14.8416C9.00007 15.1287 8.61007 15.2273 8.17293 15.2273Z" fill="#20242F"/>
<path d="M16.7144 11.1429H18.8572V9H16.7144V11.1429Z" fill="#47B9FF"/>
</g>
<defs>
<clipPath id="clip0_31_19352">
<rect width="24" height="24" fill="white"/>
</clipPath>
</defs>
</svg>

<svg xmlns="http://www.w3.org/2000/svg" width="24" height="24" fill="none" viewBox="0 0 24 24"><g clip-path="url(#a)"><path fill="#F0F3FA" d="M0 0h24v24H0z"/><path fill="#20242F" d="M12.429 11.143h1.285v3c0 2.893 2.687 3.429 4.072 3.429.471 0 .643-.103.643-.103V15h-.266c-.557 0-1.449-.223-1.449-1.191v-7.38h-3V9H12.43zm-4.256 4.084a3.67 3.67 0 0 1-2.211-.87L4.714 16.3s1.299 1.273 3.472 1.273c2.246 0 4.028-1.312 4.028-2.786 0-1.869-2.314-2.469-3.514-2.897-.583-.206-.986-.317-.986-.532 0-.3.39-.463.827-.463 1.218 0 2.058.703 2.058.703l.998-2.057s-1.028-.986-3.056-.986c-2.005 0-3.612.965-3.612 2.589 0 1.851 1.8 2.559 3.008 3.013.622.236 1.063.428 1.063.686 0 .287-.39.385-.827.385"/><path fill="#47B9FF" d="M16.714 11.143h2.143V9h-2.143z"/></g><defs><clipPath id="a"><path fill="#fff" d="M0 0h24v24H0z"/></clipPath></defs></svg>
